X:1
T:Hercule Poirot Theme
T:Hercule Poirot theme
T:Arranged by Marco B.
T:Arrangement for flute (violin) & guitar
T:Music by Christopher Gunning
C:Christopher Gunning
%%score 1 ( 2 3 )
L:1/8
Q:1/4=100
M:4/4
K:C
V:1 treble nm="Flöte" snm="Fl."
V:2 treble-8 nm="Klassische Gitarre" snm="Git."
V:3 treble-8 
V:1
 z6 (c'2 | b)c'/b/ a6 | z6 .e.c | (Bc/)B/ A6 | z8 | z8 | d8 | (A>B) c>e a3 (c' | %8
 b) .a2 (c' b/4)c'/4b/ .a2 a | g>a f>a!<(! e>a d>e!<)! | f2 c2 e3 E | (A>B) c>e a3 (c' | %12
 b) .a2 c' b/4c'/4b/ .a2 a | g>!<(!a f>a e>a d>e!<)! | f2 c2 e3 B | (^c>d) e>A d>e f>a | %16
 _b2 e2 (a/g/) a3 | (^f>g) a>d g>a _b>d' | _e'2 a2 d'/c'/ d'2 d' | %19
 !tenuto!_e'2 !tenuto!d'2 !tenuto!^c'2 !tenuto!a2 |!f! !tenuto!_e'2 !tenuto!d'2 !tenuto!^c'2 z2 | %21
 z8 | z6 c2 | A>B c>e a3 (c' | b) .a2 (c' b/4)c'/4b/ .a2 (a | g>)a f>a e>a d>e | f2 c2 e2 E2 | %27
 A>B c>e a3 (c' | b).a.e'.c' (b/4c'/4)b/ .a2 a | g>a f>_e =e>c A>B | c2 f2 c'3 e | A4- A>B c>e | %32
 a6- a.c' | .b.a z .c B/4c/4B/.A z .c' | b3/2c'/4b/4 a6 | z8 | z8 | z8 | z8 | z8 | z8 | z8 | z8 | %43
 z8 | z8 | z8 | .E>^F ^G>B ._B>c d>f | .e>^f ^g>b ._b>c' d'>f' | _b'2 a'2 ^g'2 _g'2 | %49
 .f'>._e' !>!f'4 ^c2 | _B>c ^c>f _b3 ^c' | (c' ._b2) (^c' =c'/4)^c'/4=c'/ .b2 b | %52
 ^g>_b ^f>b =f>b ^d>f | ^f2 ^c2 =f2 A2 | _B>c ^c>f _b3 ^c' | (c' ._b2) (^c' =c'/4)^c'/4=c'/ .b2 b | %56
 ^g>_b ^f>b =f>b ^d>f | ^f2 ^c2 =f2 F2 | _B8 |] %59
V:2
 z8 | z8 | z8 | z8 | (!>!!2!!3!!1![B,Ec]!0!A,)(!4!!1!!0![Bce]!2!A) (!>![B,Ec]A,)(!4!!1![bc']!2!a) | %5
!<(! (!>![B,Ec]A,)([Bce]A) (!>![B,Ec]A,)!0![E,-Bce][E,A]!<)! |"^III" !2!!(1)![^G,_Bd]8 | %7
 !0!A,!2!E!3!AE !3!G,E(!4!!1!!0![Bce]!2!A) | !1!F,!3!C([Bce]A) !0!E,!2!E([Bce]A) | %9
 !0!D!1!!3![Ad]AD !2!C"^II --------------------------"!(1)!E!(1)!AE | %10
 !(1)!B,!2!F!3!BF"^I ------"!>(! !(1)!_B,2 B,2!>)! | !0!A,!2!E!3!AE !3!G,E(!4!!1!!0![Bce]!2!A) | %12
 !1!F,!3!C([Bce]A) !0!E,!2!E([Bce]A) | %13
 !0!D!1!!3![Ad]AD !2!C"^II --------------------------"!(1)!E!(1)!AE | %14
 !(1)!B,!2!F!3!BF"^I ------"!>(! !(1)!_B,2 B,2!>)! | !0!A,!2!E!3!AE !1!_B,!3!F!4!_BF | %16
 !3!^C!1!E!0!G!2!_B !4!D!2!F!1!AF | !4!D!3!^F!1!A!4!c !1!_E!0!G!3!_B!4!d | %18
 !4!^F!2!A!1!c!4!_e"^III ---------------" !3!G!(1)!_B!(1)!dB | z !3!G,2 .G,2 G,2 .G, | %20
 z !3!G,2 .G,2 !1!G,2 z | !0!!1!!4![E,aa']2 !1!!4![E,^g^g']2 !1!!4![E,=g=g']2 !1!!4![E,ff']2 | %22
"^X" !4!e'(e'/.!(1)!d'/)"^IX" !>!!4!e'3 z z2 | !0!A,!2!E!3!AE !3!G,E(!4!!1!!0![Bce]!2!A) | %24
 !1!F,!3!C([Bce]A) !0!E,!2!E([Bce]A) | %25
 !0!D!1!!3![Ad]AD !2!C"^II -------------------------------"!(1)!E!(1)!AE | %26
 !(1)!B,!2!F!3!BF"^I ------"!>(! !(1)!_B,2 B,2!>)! | !0!A,!2!E!3!AE !3!G,E(!4!!1!!0![Bce]!2!A) | %28
 !1!F,!3!C([Bce]A) !0!E,!2!E([Bce]A) | %29
 !0!D!1!!3![Ad]AD !2!C"^II --------------------------"!(1)!E!(1)!AE | %30
 !(1)!B,!2!F!3!BF"^I ------"!>(! !(1)!_B,2 B,2!>)! | !0!A,4 !2!G,4 | z !3!A!1!aA z AaA | %33
 !0!A,4 !2!G,4 | z !3!A!1!aA z AaA | !0!A,>!2!B, !3!C>!2!E !2!A2 A,2 | %36
 !1!_B,>!3!C !0!D>!3!F !3!_B4- | B6 _B"^I"!(1)!c | .!4!B z !2!A4- A(!1!c | %39
"^I ------------------------------" .!3!_B) z !(1)!_A4 F,>!3!G, | %40
 !4!^G,>!3!C !3!F>!0!G"^I -----------------------------------------------" !(1)!^G>!(1)!c !(1)!f>!4!_e | %41
 !3!d>_e !(1)!f>!3!_B"^II--------------" !3!e>!4!f !(1)!^f>!4!_b | %42
 !4!=b2 !3!=f2 (!4!_b/!1!_a/) b3- | b4 !0!G>!2!^G !4!_B>_E | !2!^G>!4!_B !0!=B>!4!^d !0!e2 !4!_B2 | %45
!<(! (!4!^d/!1!^c/)d- d4- dd!<)! | !3!!0![^G,e]2 !4![G,_e]2 !2![G,d]2 !2![G,_B]2 | %47
 !4!e'2 !3!_e'2 !1!d'3 !2!_b | %48
!<(! !1!F/!2!^F/!4!^G/!1!_B/ !3!c/!4!^c/!1!^d/!3!f/ d/f/!4!^f/!2!^g/ !4!_b/!1!c'/!2!^c'/!4!^d'/!<)! | %49
"^III ------" .!2!!(1)!!4![^C_B_b].!(1)!=C"^II" !(1)!!4![B,Aa]3 z2 z | %50
 !1!^A,!3!^E!4!^AE !3!^G,!2!F(!1!!4![^B^c]!2!A) | !1!^F,!3!^C([^B^c]^A) !1!=F,!3!F([Bc]A) | %52
 !1!^D!3!!4![^A^d]AD"^III -------------------------------------------" !2!^C!(1)!^E!(1)!AE | %53
 !(1)!C!2!^F!3!cF"^II ------"!>(! !(1)!B,2 B,2!>)! | %54
 !1!^A,!3!^E!4!^AE !3!^G,!2!F(!1!!4![^B^c]!2!A) | !1!^F,!3!^C([^B^c]^A) !1!=F,!3!F([Bc]A) | %56
 !1!^D!3!!4![^A^d]AD"^III -------------------------" !2!^C!(1)!^E!(1)!AE | %57
 !(1)!!4![C^Ae]4"^II""^Rall."!>(! !(1)!!4![B,=A^d]4!>)! | %58
"^VI" !arpeggio!!(1)!!3!!4![_B,F_B_df_b]8 |] %59
V:3
 x8 | x8 | x8 | x8 | x8 | x8 | x8 | x8 | x8 | x8 | !(1)!!4![A_e]4 !(1)!!4![_Ad]4 | x8 | x8 | x8 | %14
 !(1)!!4![A_e]4 !(1)!!4![_Ad]4 | x8 | x8 | x8 | x8 | !1!^D>!4!F !0!G>!4!_B !2!A>!0!=B !2!^c>!0!e | %20
 !4!_e>!1!f !4!g>!4!_b !3!a>=b !4!^c'!1!a | x8 | !0!!(1)![Dfa]2 !2!!(1)![De^g]3 z z2 | x8 | x8 | %25
 x8 | !(1)!!4![A_e]4 !(1)!!4![_Ad]4 | x8 | x8 | x8 | !(1)!!4![A_e]4 !(1)!!4![_Ad]4 | %31
 z !1!A!4!aA z AaA | !4!F4 !2!_E4 | z !1!A!4!aA z AaA | !4!F4 !2!_E4 | x8 | x4 _B,B,B,B, | %37
 _B,B,B,B, B,B,B,B, | !0!A,A,A,A, A,A,A,!3!G, | !1!F,F,F,F, F,F, x2 | x8 | %41
 !(1)!_B, B,3 !(1)!=B, B,3 | !2!D2 D2 !3!^D2 D2 | !3!!1![^D^F]2 [DF]2 !1!_E2 E2 | %44
 !1!_E2 !1!E2 !3!G,2 G,2 | !3!^G,G, !1!_B,2 !2!=B,>_B, !3!=G,2 | x8 | !2!^G2 G2 G2 G2 | x8 | x8 | %50
 x8 | x8 | x8 | !(1)!!4![^Ae]4 !(1)!!4![=A^d]4 | x8 | x8 | x8 | x8 | x8 |] %59

